src/4-icons/select.svg

<svg width="260" height="260" viewBox="0 0 260 260" fill="none" xmlns="http://www.w3.org/2000/svg">
<path d="M134.819 11.5302C134.647 11.3224 134.461 11.1224 134.261 10.9314C131.496 8.29128 127.089 8.36732 124.419 11.1012L91.9536 44.3381C89.2831 47.072 89.3601 51.4285 92.1254 54.0686C94.8907 56.7087 99.2972 56.6327 101.968 53.8988L129.581 25.629L159.204 53.9111C161.969 56.5512 166.376 56.4752 169.046 53.7413C171.717 51.0074 171.64 46.6509 168.875 44.0108L135.256 11.9143C135.114 11.7791 134.969 11.6511 134.819 11.5302Z" fill="black"/>
<path fill-rule="evenodd" clip-rule="evenodd" d="M60 70C26.8629 70 0 96.8629 0 130C0 163.137 26.8629 190 60 190H200C233.137 190 260 163.137 260 130C260 96.8629 233.137 70 200 70H60ZM60 84C34.5949 84 14 104.595 14 130C14 155.405 34.5949 176 60 176H200C225.405 176 246 155.405 246 130C246 104.595 225.405 84 200 84H60Z" fill="black"/>
<path d="M134.261 249.069C134.461 248.878 134.647 248.678 134.819 248.47C134.969 248.349 135.114 248.221 135.256 248.086L168.875 215.989C171.64 213.349 171.717 208.993 169.046 206.259C166.376 203.525 161.969 203.449 159.204 206.089L129.581 234.371L101.968 206.101C99.2972 203.367 94.8907 203.291 92.1254 205.931C89.3601 208.571 89.2831 212.928 91.9536 215.662L124.419 248.899C127.089 251.633 131.496 251.709 134.261 249.069Z" fill="black"/>
</svg>

<svg width="260" height="260" viewBox="0 0 260 260" fill="none" xmlns="http://www.w3.org/2000/svg"><path d="M134.819 11.53a6.998 6.998 0 0 0-.558-.599c-2.765-2.64-7.172-2.564-9.842.17L91.954 44.338a6.826 6.826 0 0 0 .171 9.73c2.766 2.64 7.172 2.565 9.843-.17l27.613-28.269 29.623 28.282c2.765 2.64 7.172 2.564 9.842-.17a6.826 6.826 0 0 0-.171-9.73l-33.619-32.097a7.045 7.045 0 0 0-.437-.384Z" fill="#000"/><path fill-rule="evenodd" clip-rule="evenodd" d="M60 70C26.863 70 0 96.863 0 130s26.863 60 60 60h140c33.137 0 60-26.863 60-60s-26.863-60-60-60H60Zm0 14c-25.405 0-46 20.595-46 46s20.595 46 46 46h140c25.405 0 46-20.595 46-46s-20.595-46-46-46H60Z" fill="#000"/><path d="M134.261 249.069c.2-.191.386-.391.558-.599.15-.121.295-.249.437-.384l33.619-32.097a6.826 6.826 0 0 0 .171-9.73c-2.67-2.734-7.077-2.81-9.842-.17l-29.623 28.282-27.613-28.27c-2.67-2.734-7.077-2.81-9.843-.17a6.827 6.827 0 0 0-.171 9.731l32.465 33.237c2.67 2.734 7.077 2.81 9.842.17Z" fill="#000"/></svg>
